assets/features/channel/other/knet.svg

<svg width="80" height="80" viewBox="0 0 80 80" fill="none" xmlns="http://www.w3.org/2000/svg">
<g clip-path="url(#clip0_2497_22901)">
<rect width="80" height="80" rx="8" fill="#0872B9"/>
<path d="M64 48.4434H16V57.448H64V48.4434Z" fill="#0872B9"/>
<path d="M64 22.7998H16V31.8044H64V22.7998Z" fill="#0872B9"/>
<path d="M64 32.5874H16V47.7582H64V32.5874Z" fill="#0872B9"/>
<path d="M61.1594 25.9321H57.1431L57.437 26.4215H61.4533L62.8248 27.3024C62.8248 27.3024 63.1186 27.596 62.9227 27.7917L61.3554 28.9663H53.7146L53.1268 28.1833V30.3365H43.6248V26.1279H50.5799V28.2811H46.5635V29.0641H51.2656H51.4615V26.2257H54.1064L55.6737 27.7917H60.1799V27.0087H55.6737L53.5186 24.8555H60.4737L61.1594 25.9321Z" fill="white"/>
<path d="M55.3797 29.5532H54.4001V30.4341H55.3797V29.5532Z" fill="white"/>
<path d="M57.7306 29.5532H56.751V30.4341H57.7306V29.5532Z" fill="white"/>
<path d="M23.1512 25.3447H21.7798V26.6171H23.1512V25.3447Z" fill="white"/>
<path d="M24.9144 25.3447H23.543V26.6171H24.9144V25.3447Z" fill="white"/>
<path d="M36.1795 25.3447H34.8081V26.6171H36.1795V25.3447Z" fill="white"/>
<path d="M41.3715 27.4004H37.845V28.6728H41.3715V27.4004Z" fill="white"/>
<path d="M34.1226 26.9109H36.5716V29.7493H18.3512L16.9797 27.9875L19.3308 24.8555H21.192L19.8206 27.9875H31.8695V27.0087H33.5348V27.9875H34.1226V26.9109Z" fill="white"/>
<path d="M26.6777 55.6857H25.1103V53.043C25.1103 52.4558 25.1103 52.1622 25.0124 51.9664C24.9144 51.7707 24.8165 51.6728 24.7185 51.5749C24.6205 51.477 24.4246 51.477 24.2287 51.477C23.9348 51.477 23.7389 51.5749 23.543 51.6728C23.3471 51.7707 23.1511 51.9664 23.1511 52.1622C23.0532 52.3579 22.9552 52.7494 22.9552 53.3367V55.6857H21.4858V50.4983H22.8573V51.2813C23.3471 50.694 24.0328 50.4004 24.7185 50.4004C25.0124 50.4004 25.3062 50.4983 25.6001 50.5961C25.894 50.694 26.0899 50.8898 26.1879 50.9876C26.2858 51.1834 26.3838 51.3792 26.4818 51.5749C26.5797 51.7707 26.5797 52.0643 26.5797 52.4558V55.6857H26.6777Z" fill="white"/>
<path d="M40.7837 54.0218L42.2531 54.2176C42.0572 54.7069 41.7633 55.0984 41.3715 55.3921C40.9796 55.6857 40.3919 55.7836 39.8041 55.7836C38.8245 55.7836 38.0409 55.4899 37.649 54.9027C37.2572 54.4133 37.0613 53.826 37.0613 53.1409C37.0613 52.26 37.3552 51.5749 37.845 51.0855C38.3347 50.5961 38.9225 50.4004 39.7062 50.4004C40.5878 50.4004 41.1756 50.694 41.6654 51.1834C42.1552 51.6728 42.3511 52.4558 42.3511 53.5324H38.6286C38.6286 53.9239 38.7266 54.2176 39.0205 54.5112C39.2164 54.7069 39.5103 54.8048 39.9021 54.8048C40.098 54.8048 40.2939 54.7069 40.4899 54.6091C40.5878 54.5112 40.6858 54.3154 40.7837 54.0218ZM40.8817 52.6515C40.8817 52.26 40.7837 51.9664 40.5878 51.7707C40.3919 51.5749 40.098 51.477 39.8041 51.477C39.5103 51.477 39.2164 51.5749 39.0205 51.7707C38.8245 51.9664 38.7266 52.26 38.7266 52.6515H40.8817Z" fill="white"/>
<path d="M58.4165 50.4984V51.575H57.4369V53.6304C57.4369 54.0219 57.4369 54.3155 57.4369 54.4134C57.4369 54.5113 57.5349 54.5113 57.5349 54.6092C57.6328 54.6092 57.7308 54.707 57.8287 54.707C57.9267 54.707 58.1226 54.707 58.4165 54.6092L58.5145 55.6858C58.1226 55.7837 57.7308 55.8815 57.3389 55.8815C57.0451 55.8815 56.8491 55.8815 56.6532 55.7837C56.4573 55.6858 56.2614 55.5879 56.1634 55.49C56.0655 55.3922 55.9675 55.1964 55.9675 55.0007C55.9675 54.8049 55.8696 54.5113 55.8696 54.0219V51.7708H55.1838V50.6941H55.8696V49.6175L57.3389 48.8345V50.6941H58.4165V50.4984Z" fill="white"/>
<path d="M33.8276 33.7622H22.4644V45.8988H33.8276V33.7622Z" fill="#FBED1F"/>
<path d="M33.4363 39.1457L41.8608 33.8604H56.8485L48.62 39.1457L57.5342 45.7033H41.4689L33.6322 39.635L33.4363 39.1457Z" fill="#FBED1F"/>
<line x1="-1.31134e-07" y1="80.5" x2="201" y2="80.5" stroke="white" stroke-width="3"/>
</g>
<defs>
<clipPath id="clip0_2497_22901">
<rect width="80" height="80" rx="8" fill="white"/>
</clipPath>
</defs>
</svg>

<svg xmlns="http://www.w3.org/2000/svg" width="80" height="80" fill="none" viewBox="0 0 80 80"><g clip-path="url(#a)"><rect width="80" height="80" fill="#0872b9" rx="8"/><path fill="#0872b9" d="M64 48.443H16v9.005h48zM64 22.8H16v9.004h48zm0 9.787H16v15.171h48z"/><path fill="#fff" d="M61.16 25.932h-4.017l.294.49h4.016l1.372.88s.294.294.098.49l-1.568 1.174h-7.64l-.588-.783v2.154h-9.502v-4.21h6.955v2.154h-4.017v.783h4.899v-2.838h2.644l1.568 1.566h4.506v-.783h-4.506l-2.155-2.154h6.955z"/><path fill="#fff" d="M55.38 29.553h-.98v.881h.98zm2.35 0h-.979v.881h.98zm-34.579-4.208H21.78v1.272h1.371zm1.763 0h-1.371v1.272h1.371zm11.266 0h-1.372v1.272h1.371zm5.192 2.055h-3.527v1.273h3.526z"/><path fill="#fff" d="M34.123 26.91h2.449v2.84h-18.22l-1.372-1.762 2.35-3.133h1.862l-1.371 3.133h12.048v-.98h1.666v.98h.588zm-7.445 28.776H25.11v-2.643c0-.587 0-.88-.098-1.077a1.4 1.4 0 0 0-.294-.391c-.098-.098-.293-.098-.49-.098-.293 0-.49.098-.685.196s-.392.293-.392.49c-.098.195-.196.586-.196 1.174v2.349h-1.47v-5.188h1.372v.783a2.41 2.41 0 0 1 1.861-.88c.294 0 .588.097.882.195s.49.294.588.392l.294.587c.098.196.098.49.098.88v3.23zm14.106-1.664 1.47.196q-.295.733-.883 1.174c-.391.294-.98.392-1.567.392-.98 0-1.763-.294-2.155-.881q-.588-.735-.588-1.762c0-.881.294-1.566.784-2.055s1.078-.686 1.861-.686c.882 0 1.47.294 1.96.783s.685 1.273.685 2.35H38.63c0 .39.098.685.392.978q.294.294.881.294c.196 0 .392-.098.588-.196q.147-.147.294-.587m.098-1.37q0-.588-.294-.881c-.196-.196-.49-.294-.784-.294s-.588.098-.784.294q-.293.293-.293.88zm17.534-2.154v1.077h-.98v2.838c0 .098.098.098.098.196.098 0 .196.098.294.098s.294 0 .587-.098l.099 1.077c-.392.098-.784.196-1.176.196-.294 0-.49 0-.686-.098s-.392-.196-.49-.294a.75.75 0 0 1-.195-.49c0-.195-.098-.489-.098-.978V51.77h-.686v-1.077h.686v-1.077l1.469-.782v1.86h1.078z"/><path fill="#fbed1f" d="M33.828 33.762H22.464V45.9h11.364z"/><path fill="#fbed1f" d="m33.436 39.146 8.425-5.286h14.988l-8.229 5.286 8.914 6.557H41.47l-7.837-6.068z"/><path stroke="#fff" stroke-width="3" d="M0 80.5h201"/></g><defs><clipPath id="a"><rect width="80" height="80" fill="#fff" rx="8"/></clipPath></defs></svg>
